src/assets/images/icons/music.svg

<?xml version="1.0" encoding="utf-8"?>
<!-- Generator: Adobe Illustrator 16.0.0, SVG Export Plug-In . SVG Version: 6.00 Build 0)  -->
<!DOCTYPE svg PUBLIC "-//W3C//DTD SVG 1.1//EN" "http://www.w3.org/Graphics/SVG/1.1/DTD/svg11.dtd">
<svg version="1.1" xmlns="http://www.w3.org/2000/svg" xmlns:xlink="http://www.w3.org/1999/xlink" x="0px" y="0px" width="288px"
	 height="288px" viewBox="0 0 288 288" style="enable-background:new 0 0 288 288;" xml:space="preserve">
<style type="text/css">
<![CDATA[
	.st0{display:inline;fill-rule:evenodd;clip-rule:evenodd;fill:#D8D8D8;}
	.st1{display:inline;fill:#162051;}
	.st2{clip-path:url(#SVGID_67_);enable-background:new    ;}
	.st3{clip-path:url(#SVGID_50_);enable-background:new    ;}
	.st4{clip-path:url(#SVGID_195_);fill:#00826E;}
	.st5{fill:#ABA118;}
	.st6{fill-rule:evenodd;clip-rule:evenodd;fill:#D8D8D8;}
	.st7{clip-path:url(#SVGID_131_);fill:#CCCCCC;}
	.st8{fill:#ADADAD;}
	.st9{fill-rule:evenodd;clip-rule:evenodd;fill:#EA7565;stroke:#FFFFFF;stroke-miterlimit:10;}
	.st10{clip-path:url(#SVGID_153_);fill:#CCCCCC;}
	.st11{clip-path:url(#SVGID_91_);fill:#E6E6E6;}
	.st12{clip-path:url(#SVGID_201_);fill:#00826E;}
	.st13{fill:#AEA418;}
	.st14{clip-path:url(#SVGID_223_);fill:#00826E;}
	.st15{clip-path:url(#SVGID_111_);fill:#999999;}
	.st16{fill:#E2D51F;}
	.st17{fill:#E3E3E3;}
	.st18{fill:#E4E4E4;}
	.st19{clip-path:url(#SVGID_191_);fill:#E6E6E6;}
	.st20{fill-rule:evenodd;clip-rule:evenodd;fill:none;stroke:#000000;stroke-width:3;stroke-linecap:round;stroke-miterlimit:10;}
	.st21{fill:#E5D820;}
	.st22{opacity:0.3;fill-rule:evenodd;clip-rule:evenodd;fill:#FFFFFF;}
	.st23{clip-path:url(#SVGID_91_);fill:#B3B3B3;}
	.st24{fill-rule:evenodd;clip-rule:evenodd;fill:#3374B4;stroke:#E4E4E4;stroke-miterlimit:10;}
	.st25{clip-path:url(#SVGID_165_);fill:#CCCCCC;}
	.st26{clip-path:url(#SVGID_91_);fill:none;stroke:#E6E6E6;stroke-width:4;stroke-miterlimit:10;}
	.st27{clip-path:url(#SVGID_213_);fill:#00826E;}
	.st28{fill:none;stroke:#8B8B8B;stroke-miterlimit:10;}
	.st29{clip-path:url(#SVGID_187_);fill:#CCCCCC;}
	.st30{clip-path:url(#SVGID_169_);fill:none;stroke:#FFFFFF;stroke-width:0.8182;stroke-miterlimit:10;}
	.st31{fill-rule:evenodd;clip-rule:evenodd;fill:#DC7565;}
	.st32{fill:#E8DB20;}
	.st33{fill:none;stroke:#EEE021;stroke-miterlimit:10;}
	.st34{clip-path:url(#SVGID_101_);fill:#999999;}
	.st35{fill:none;stroke:#FFFFFF;stroke-width:2;stroke-miterlimit:10;}
	.st36{fill-rule:evenodd;clip-rule:evenodd;fill:#00806E;stroke:#00806E;stroke-miterlimit:10;}
	.st37{clip-path:url(#SVGID_89_);fill:#FFFFFF;}
	.st38{clip-path:url(#SVGID_123_);fill:#999999;}
	.st39{clip-path:url(#SVGID_183_);fill:none;stroke:#FFFFFF;stroke-width:0.3879;stroke-miterlimit:10;}
	
		.st40{fill-rule:evenodd;clip-rule:evenodd;fill:none;stroke:#FFFFFF;stroke-width:3;stroke-linecap:round;stroke-linejoin:round;stroke-miterlimit:10;}
	.st41{fill:#B1A719;}
	.st42{clip-path:url(#SVGID_197_);fill:#00826E;}
	.st43{fill:#B2B2B2;}
	.st44{fill-rule:evenodd;clip-rule:evenodd;fill:#4480B8;}
	.st45{fill-rule:evenodd;clip-rule:evenodd;fill:#FFFFFF;stroke:#00806E;stroke-miterlimit:10;}
	.st46{fill:none;stroke:#BEBEBE;stroke-width:10;stroke-linejoin:round;stroke-miterlimit:10;}
	.st47{fill:#B4A919;}
	.st48{clip-path:url(#SVGID_203_);fill:#00826E;}
	.st49{opacity:0.7;fill-rule:evenodd;clip-rule:evenodd;fill:#0A1B33;}
	.st50{opacity:0.6;fill:#00806E;}
	.st51{clip-path:url(#SVGID_225_);fill:#00826E;}
	.st52{fill:#EA7565;}
	.st53{fill:#B6B6B6;}
	.st54{display:none;opacity:0.5;fill-rule:evenodd;clip-rule:evenodd;fill:#EEE021;}
	.st55{clip-path:url(#SVGID_71_);enable-background:new    ;}
	.st56{clip-path:url(#SVGID_40_);enable-background:new    ;}
	.st57{fill:#B7AC19;}
	.st58{fill:#EBDD21;}
	.st59{fill:none;stroke:#E4E4E4;stroke-miterlimit:10;}
	.st60{display:none;opacity:0.7;fill-rule:evenodd;clip-rule:evenodd;fill:#0A1B33;}
	.st61{clip-path:url(#SVGID_171_);fill:#E6E6E6;}
	.st62{enable-background:new    ;}
	.st63{fill:#EEE021;}
	.st64{display:inline;fill:#BEBEBE;}
	.st65{fill-rule:evenodd;clip-rule:evenodd;fill:none;stroke:#4D4D4D;stroke-width:4;stroke-linecap:round;stroke-miterlimit:10;}
	.st66{fill-rule:evenodd;clip-rule:evenodd;fill:#E1E2E3;}
	.st67{clip-path:url(#SVGID_215_);fill:#00826E;}
	.st68{opacity:0.7;fill:#1A1A1A;}
	.st69{fill-rule:evenodd;clip-rule:evenodd;fill:#E4E4E4;}
	.st70{fill:none;stroke:#FFFFFF;stroke-width:20;stroke-linecap:square;stroke-miterlimit:10;}
	.st71{fill:#BAAF1A;}
	.st72{fill:#BABABA;}
	.st73{clip-path:url(#SVGID_199_);fill:#00826E;}
	.st74{clip-path:url(#SVGID_113_);fill:#CCCCCC;}
	.st75{fill-rule:evenodd;clip-rule:evenodd;fill:#4D4D4D;}
	.st76{clip-path:url(#SVGID_157_);fill:#CCCCCC;}
	.st77{fill:#BDB11A;}
	.st78{clip-path:url(#SVGID_95_);fill:#E6E6E6;}
	.st79{clip-path:url(#SVGID_205_);fill:#00826E;}
	.st80{fill-rule:evenodd;clip-rule:evenodd;fill:none;stroke:#000000;stroke-width:4;stroke-miterlimit:10;}
	.st81{fill-rule:evenodd;clip-rule:evenodd;fill:#E9D94E;}
	.st82{clip-path:url(#SVGID_227_);fill:#00826E;}
	.st83{fill:#BEBEBE;}
	.st84{fill-rule:evenodd;clip-rule:evenodd;fill:none;stroke:#EEE021;stroke-miterlimit:10;}
	.st85{fill:#22357A;}
	.st86{display:inline;fill:none;stroke:#394050;stroke-width:2;stroke-miterlimit:10;}
	.st87{opacity:0.1;fill-rule:evenodd;clip-rule:evenodd;}
	.st88{clip-path:url(#SVGID_137_);fill:#999999;}
	.st89{opacity:0.5;fill:#FFFFFF;}
	.st90{opacity:0.8;fill:none;stroke:#E4E4E4;stroke-miterlimit:10;}
	.st91{clip-path:url(#SVGID_161_);fill:none;stroke:#FFFFFF;stroke-width:0.8182;stroke-miterlimit:10;}
	.st92{display:none;opacity:0.5;fill-rule:evenodd;clip-rule:evenodd;fill:#292F3D;}
	.st93{opacity:0.8;fill-rule:evenodd;clip-rule:evenodd;fill:#0A1B33;}
	.st94{display:inline;fill:none;stroke:#8B8B8B;stroke-width:2;stroke-miterlimit:10;}
	.st95{clip-path:url(#SVGID_125_);fill:#CCCCCC;}
	.st96{fill:none;stroke:#394050;stroke-width:2;stroke-miterlimit:10;}
	.st97{clip-path:url(#SVGID_169_);fill:#CCCCCC;}
	.st98{clip-path:url(#SVGID_47_);enable-background:new    ;}
	.st99{clip-path:url(#SVGID_42_);enable-background:new    ;}
	.st100{clip-path:url(#SVGID_30_);enable-background:new    ;}
	.st101{clip-path:url(#SVGID_217_);fill:#00826E;}
	.st102{display:inline;fill-rule:evenodd;clip-rule:evenodd;fill:#EEE021;}
	.st103{display:inline;opacity:0.2;}
	.st104{fill:#292F3D;}
	.st105{fill-rule:evenodd;clip-rule:evenodd;stroke:#00806E;stroke-miterlimit:10;}
	.st106{fill:none;stroke:#8B8B8B;stroke-width:2;stroke-miterlimit:10;}
	.st107{clip-path:url(#SVGID_105_);fill:#999999;}
	.st108{clip-path:url(#SVGID_141_);fill:#E6E6E6;}
	.st109{fill-rule:evenodd;clip-rule:evenodd;fill:#EEE021;}
	.st110{fill:none;stroke:#00806E;stroke-width:5;stroke-miterlimit:10;}
	.st111{clip-path:url(#SVGID_163_);fill:#E6E6E6;}
	.st112{fill-rule:evenodd;clip-rule:evenodd;fill:none;stroke:#E4E4E4;stroke-miterlimit:10;}
	.st113{fill:#C0B41B;}
	.st114{clip-path:url(#SVGID_91_);fill:#999999;}
	.st115{display:inline;fill:#FFFFFF;}
	.st116{fill:none;stroke:#292F3D;stroke-width:8;stroke-linecap:round;stroke-linejoin:round;stroke-miterlimit:10;}
	.st117{fill:url(#SVGID_2_);}
	.st118{fill:url(#SVGID_5_);}
	.st119{fill:url(#SVGID_6_);}
	.st120{fill:#C2B71B;}
	.st121{fill:#C2C2C2;}
	.st122{fill:none;stroke:#292F3D;stroke-width:2;}
	.st123{display:none;opacity:0.6;clip-path:url(#SVGID_81_);fill:#00806E;}
	.st124{clip-path:url(#SVGID_207_);fill:#00826E;}
	.st125{opacity:0.3;clip-path:url(#SVGID_35_);}
	.st126{opacity:0.3;clip-path:url(#SVGID_39_);}
	.st127{opacity:0.3;clip-path:url(#SVGID_46_);}
	.st128{opacity:0.3;clip-path:url(#SVGID_70_);}
	.st129{fill:#C5BA1B;}
	.st130{fill-rule:evenodd;clip-rule:evenodd;fill:none;stroke:#FFFFFF;stroke-miterlimit:10;}
	.st131{fill:none;stroke:#449CD8;}
	.st132{fill:#C6C6C6;}
	.st133{fill-rule:evenodd;clip-rule:evenodd;fill:#8B8B8B;}
	.st134{clip-path:url(#SVGID_117_);fill:#999999;}
	.st135{fill:none;stroke:#000000;stroke-width:20;stroke-linecap:square;stroke-miterlimit:10;}
	.st136{clip-path:url(#SVGID_187_);fill:none;stroke:#FFFFFF;stroke-width:0.3879;stroke-miterlimit:10;}
	.st137{display:none;fill-rule:evenodd;clip-rule:evenodd;fill:#EEE021;}
	.st138{fill:#999999;}
	.st139{fill:#C8BC1C;}
	.st140{clip-path:url(#SVGID_175_);fill:#E6E6E6;}
	.st141{fill-rule:evenodd;clip-rule:evenodd;}
	.st142{opacity:0.1;}
	.st143{opacity:0.2;}
	.st144{opacity:0.6;}
	.st145{fill-rule:evenodd;clip-rule:evenodd;fill:#BEBEBE;}
	.st146{display:none;fill:none;}
	.st147{fill:#FFFFFF;}
	.st148{clip-path:url(#SVGID_91_);fill:#CCCCCC;}
	.st149{clip-path:url(#SVGID_219_);fill:#00826E;}
	.st150{fill-rule:evenodd;clip-rule:evenodd;fill:#E1E2E3;stroke:#00806E;stroke-miterlimit:10;}
	.st151{fill:none;stroke:#FFFFFF;stroke-width:4;stroke-linejoin:round;stroke-miterlimit:10;}
	.st152{clip-path:url(#SVGID_107_);fill:#999999;}
	.st153{clip-path:url(#SVGID_129_);fill:#999999;}
	.st154{display:inline;fill-rule:evenodd;clip-rule:evenodd;fill:#292F3D;}
	.st155{clip-path:url(#SVGID_143_);fill:#E6E6E6;}
	.st156{fill:#CACACA;}
	.st157{opacity:0.2;fill:none;stroke:#D8D8D8;stroke-miterlimit:10;stroke-dasharray:6;}
	.st158{clip-path:url(#SVGID_32_);enable-background:new    ;}
	.st159{fill:#CBBF1C;}
	.st160{clip-path:url(#SVGID_139_);fill:#CCCCCC;}
	.st161{fill-rule:evenodd;clip-rule:evenodd;fill:#292F3D;}
	.st162{fill:none;stroke:#E4E4E4;}
	.st163{fill:#9D9D9D;}
	.st164{display:inline;}
	.st165{clip-path:url(#SVGID_99_);fill:#E6E6E6;}
	.st166{clip-path:url(#SVGID_209_);fill:#00826E;}
	.st167{display:inline;fill-rule:evenodd;clip-rule:evenodd;fill:#4480B8;stroke:#FFFFFF;stroke-miterlimit:10;}
	.st168{fill:#CDCDCD;}
	.st169{fill:#CEC21D;}
	.st170{fill:#CECECE;}
	.st171{display:inline;fill:#D2D2D2;stroke:#000000;stroke-miterlimit:10;}
	.st172{clip-path:url(#SVGID_133_);fill:#E6E6E6;}
	.st173{fill:#3374B4;}
	.st174{clip-path:url(#SVGID_155_);fill:#E6E6E6;}
	.st175{clip-path:url(#SVGID_236_);enable-background:new    ;}
	.st176{clip-path:url(#SVGID_177_);fill:#E6E6E6;}
	.st177{clip-path:url(#SVGID_181_);fill:#CCCCCC;}
	.st178{fill-rule:evenodd;clip-rule:evenodd;fill:url(#SVGID_229_);}
	.st179{fill-rule:evenodd;clip-rule:evenodd;fill:url(#SVGID_231_);}
	.st180{fill-rule:evenodd;clip-rule:evenodd;fill:url(#SVGID_233_);}
	.st181{fill-rule:evenodd;clip-rule:evenodd;fill:url(#SVGID_237_);}
	.st182{fill:#D2D2D2;stroke:#000000;stroke-miterlimit:10;}
	.st183{opacity:0.3;clip-path:url(#SVGID_234_);}
	.st184{opacity:0.1;fill-rule:evenodd;clip-rule:evenodd;fill:none;stroke:#E4E4E4;stroke-miterlimit:10;}
	.st185{clip-path:url(#SVGID_93_);fill:#CCCCCC;}
	.st186{fill-rule:evenodd;clip-rule:evenodd;fill:#97B676;}
	.st187{fill:none;stroke:#E4E4E4;stroke-width:6;stroke-miterlimit:10;}
	.st188{clip-path:url(#SVGID_121_);}
	.st189{clip-path:url(#SVGID_127_);}
	.st190{fill:#394050;}
	.st191{clip-path:url(#SVGID_135_);}
	.st192{clip-path:url(#SVGID_149_);}
	.st193{clip-path:url(#SVGID_151_);}
	.st194{clip-path:url(#SVGID_159_);}
	.st195{clip-path:url(#SVGID_167_);}
	.st196{clip-path:url(#SVGID_109_);fill:#999999;}
	.st197{clip-path:url(#SVGID_239_);}
	.st198{fill:none;stroke:#BEBEBE;stroke-width:10;stroke-linecap:round;stroke-linejoin:round;stroke-miterlimit:10;}
	.st199{fill-rule:evenodd;clip-rule:evenodd;fill:none;stroke:#FFFFFF;stroke-width:4;stroke-miterlimit:10;}
	.st200{fill:#00806E;}
	.st201{clip-path:url(#SVGID_145_);fill:#E6E6E6;}
	.st202{clip-path:url(#SVGID_153_);fill:none;stroke:#FFFFFF;stroke-width:0.8182;stroke-miterlimit:10;}
	.st203{clip-path:url(#SVGID_189_);fill:#E6E6E6;}
	.st204{fill-rule:evenodd;clip-rule:evenodd;fill:#FFFFFF;}
	.st205{clip-path:url(#SVGID_119_);fill:#CCCCCC;}
	.st206{opacity:0.3;fill:none;stroke:#292F3D;stroke-miterlimit:10;stroke-dasharray:4,2;}
	.st207{fill:#D1C51D;}
	.st208{fill:none;stroke:#BEBEBE;stroke-width:10;stroke-miterlimit:10;}
	.st209{clip-path:url(#SVGID_93_);fill:none;stroke:#FFFFFF;stroke-width:2;stroke-miterlimit:10;}
	.st210{display:inline;fill-rule:evenodd;clip-rule:evenodd;fill:#3374B4;stroke:#E4E4E4;stroke-miterlimit:10;}
	.st211{fill:#3374B4;stroke:#FFFFFF;stroke-miterlimit:10;}
	.st212{display:none;opacity:0.6;clip-path:url(#SVGID_85_);fill:#00806E;}
	.st213{fill:#D2D2D2;}
	.st214{opacity:0.9;fill:#292F3D;}
	.st215{fill:#D4C71D;}
	.st216{fill:#D6D6D6;}
	.st217{fill:#D7CA1E;}
	.st218{clip-path:url(#SVGID_161_);fill:#CCCCCC;}
	.st219{clip-path:url(#SVGID_179_);fill:#E6E6E6;}
	.st220{fill:#D8D8D8;}
	.st221{clip-path:url(#SVGID_183_);fill:#CCCCCC;}
	
		.st222{fill-rule:evenodd;clip-rule:evenodd;fill:none;stroke:#4D4D4D;stroke-width:4;stroke-linecap:round;stroke-linejoin:round;stroke-miterlimit:10;}
	.st223{clip-path:url(#SVGID_185_);fill:none;stroke:#FFFFFF;stroke-width:0.3879;stroke-miterlimit:10;}
	.st224{fill:none;stroke:#D8D8D8;stroke-miterlimit:10;}
	.st225{display:none;}
	.st226{fill-rule:evenodd;clip-rule:evenodd;fill:url(#SVGID_24_);}
	.st227{fill-rule:evenodd;clip-rule:evenodd;fill:url(#SVGID_27_);}
	.st228{fill-rule:evenodd;clip-rule:evenodd;fill:url(#SVGID_31_);}
	.st229{fill-rule:evenodd;clip-rule:evenodd;fill:url(#SVGID_33_);}
	.st230{fill-rule:evenodd;clip-rule:evenodd;fill:url(#SVGID_38_);}
	.st231{fill-rule:evenodd;clip-rule:evenodd;fill:url(#SVGID_41_);}
	.st232{fill-rule:evenodd;clip-rule:evenodd;fill:url(#SVGID_45_);}
	.st233{fill-rule:evenodd;clip-rule:evenodd;fill:url(#SVGID_48_);}
	.st234{fill-rule:evenodd;clip-rule:evenodd;fill:url(#SVGID_65_);}
	.st235{fill-rule:evenodd;clip-rule:evenodd;fill:url(#SVGID_68_);}
	.st236{clip-path:url(#SVGID_18_);}
	.st237{fill:#A1A1A1;}
	.st238{clip-path:url(#SVGID_51_);}
	.st239{clip-path:url(#SVGID_72_);}
	.st240{clip-path:url(#SVGID_79_);}
	.st241{clip-path:url(#SVGID_83_);}
	.st242{clip-path:url(#SVGID_87_);}
	.st243{clip-path:url(#SVGID_89_);}
	.st244{clip-path:url(#SVGID_91_);}
	.st245{fill-rule:evenodd;clip-rule:evenodd;fill:#333333;}
	.st246{clip-path:url(#SVGID_193_);fill:#00826E;}
	.st247{clip-path:url(#SVGID_103_);fill:#E6E6E6;}
	.st248{clip-path:url(#SVGID_238_);enable-background:new    ;}
	.st249{clip-path:url(#SVGID_147_);fill:#E6E6E6;}
	.st250{fill:#A5A5A5;}
	.st251{clip-path:url(#SVGID_173_);fill:#CCCCCC;}
	.st252{clip-path:url(#SVGID_97_);fill:#999999;}
	.st253{clip-path:url(#SVGID_221_);fill:#00826E;}
	.st254{fill:#DACD1E;}
	.st255{fill:#DADADA;}
	.st256{fill:#A89E17;}
	.st257{fill-rule:evenodd;clip-rule:evenodd;fill:none;stroke:#FFFFFF;stroke-width:3;stroke-linecap:round;stroke-miterlimit:10;}
	.st258{fill:#A9A9A9;}
	.st259{fill:#DDD01F;}
	.st260{fill-rule:evenodd;clip-rule:evenodd;fill:#00806E;}
	.st261{clip-path:url(#Overlay_6_);}
	.st262{fill:#DEDEDE;}
	
		.st263{fill-rule:evenodd;clip-rule:evenodd;fill:none;stroke:#000000;stroke-width:3;stroke-linecap:round;stroke-linejoin:round;stroke-miterlimit:10;}
	.st264{clip-path:url(#SVGID_115_);fill:#E6E6E6;}
	.st265{fill:none;stroke:#292F3D;}
	.st266{fill:#DFD21F;}
	.st267{clip-path:url(#SVGID_89_);fill:#F2F2F2;}
	.st268{opacity:0.3;fill:none;stroke:#E4E4E4;stroke-miterlimit:10;stroke-dasharray:4,2;}
	.st269{fill-rule:evenodd;clip-rule:evenodd;fill:#D26C78;}
	.st270{clip-path:url(#SVGID_211_);fill:#00826E;}
	.st271{clip-path:url(#SVGID_185_);fill:#CCCCCC;}
	.st272{display:inline;opacity:0.4;fill-rule:evenodd;clip-rule:evenodd;}
	.st273{fill:none;stroke:#EEE021;stroke-width:4;stroke-miterlimit:10;}
	.st274{display:none;opacity:0.6;clip-path:url(#SVGID_77_);fill:#00806E;}
]]>
</style>
<symbol  id="Icon_-_Speaker" viewBox="-144 -144 288 288">
	<path class="st104" d="M144,0c0-79.5-64.5-144-144-144S-144-79.5-144,0S-79.5,144,0,144S144,79.5,144,0z"/>
	<linearGradient id="SVGID_2_" gradientUnits="userSpaceOnUse" x1="0" y1="-107" x2="-9.441660e-006" y2="109">
		<stop  offset="0" style="stop-color:#EEE021"/>
		<stop  offset="1" style="stop-color:#CBB620"/>
	</linearGradient>
	<path class="st117" d="M108,1c0-59.6-48.4-108-108-108S-108-58.6-108,1S-59.6,109,0,109S108,60.6,108,1z"/>
	<path class="st104" d="M-36,0c0-19.9,16.1-36,36-36S36-19.9,36,0S19.9,36,0,36S-36,19.9-36,0z"/>
	<polygon class="st146" points="-144,144 144,144 144,-144 -144,-144 	"/>
</symbol>
<g id="Sketch1" class="st225">
</g>
<g id="Sketch_-_Portfolio" class="st225">
	<g id="Web_copy" class="st164">
		<g id="_x3C_Layer_x3E__copy">
		</g>
	</g>
</g>
<g id="Sketch_-_Skills" class="st225">
</g>
<g id="Sketch_-_Header" class="st225">
</g>
<g id="Interface_-_Desktop">
	<g id="About_1_">
	</g>
	<g id="About_copy_2" class="st225">
	</g>
	<g id="About_copy" class="st225">
	</g>
	<g id="Contact_2_">
		<g>
			<defs>
				<rect id="SVGID_56_" x="1369" y="1413" width="1280" height="402"/>
			</defs>
			<clipPath id="SVGID_4_">
				<use xlink:href="#SVGID_56_"  style="overflow:visible;"/>
			</clipPath>
		</g>
	</g>
</g>
<g id="Interface_Mobile">
	<g>
		<defs>
			<rect id="SVGID_64_" x="3455" y="1757" width="480" height="801"/>
		</defs>
		<clipPath id="SVGID_5_">
			<use xlink:href="#SVGID_64_"  style="overflow:visible;"/>
		</clipPath>
	</g>
</g>
<g id="Interface_-_ProjectList">
</g>
<g id="Interface_-_ProjectDetail">
	<g id="Icon_-_Arrow" class="st225">
	</g>
</g>
<g id="Icons">
	
		<use xlink:href="#Icon_-_Speaker"  width="288" height="288" id="XMLID_2_" x="-144" y="-144" transform="matrix(1 0 0 -1 144 144)" style="overflow:visible;"/>
</g>
<g id="Guides">
</g>
</svg>

<svg xmlns="http://www.w3.org/2000/svg" xmlns:xlink="http://www.w3.org/1999/xlink" viewBox="0 0 288 288" enable-background="new 0 0 288 288"><defs><path id="2" d="m3455 1757h480v801h-480z"/><path id="3" d="m1369 1413h1280v402h-1280z"/><clipPath><use xlink:href="#3"/></clipPath><clipPath><use xlink:href="#2"/></clipPath><linearGradient id="1" gradientUnits="userSpaceOnUse" y1="-107" x2="0" y2="109"><stop stop-color="#eee021"/><stop offset="1" stop-color="#cbb620"/></linearGradient></defs><symbol id="0" viewBox="-144 -144 288 288"><path d="m144 0c0-79-64-144-144-144s-144 65-144 144 65 144 144 144 144-64 144-144" fill="#292f3d"/><path d="m108 1c0-60-48-108-108-108s-108 48-108 108 48 108 108 108 108-48 108-108" fill="url(#1)"/><path d="m-36 0c0-19.9 16-36 36-36s36 16 36 36-16 36-36 36-36-16-36-36" fill="#292f3d"/></symbol><use xlink:href="#0" width="288" height="288" x="-144" y="-144" transform="matrix(1 0 0-1 144 144)"/></svg>
